**harm	**harte	**timestamp	**phrase	**leadinstrument	**kern
*M4/4	*M4/4	*	*	*	*
*D:	*D:	*	*	*	*D:
1r;	N	0	.	r	1r;
=1	=1	=1	=1	=1	=1
*>A_intro	*>A_intro	*>A_intro	*>A_intro	*>A_intro	*>A_intro
1r	N	0.279	newline	r	1r
=2	=2	=2	=2	=2	=2
1r	N	2.404	.	r	1r
=3	=3	=3	=3	=3	=3
1r	N	4.528	.	r	1r
=4	=4	=4	=4	=4	=4
1r	N	6.653	.	r	1r
=5	=5	=5	=5	=5	=5
*>B_verse	*>B_verse	*>B_verse	*>B_verse	*>B_verse	*>B_verse
1V7	A:7	8.778	newline	voice	1A 1cc# 1ee 1gg
=6	=6	=6	=6	=6	=6
1V7	A:7	10.878	.	voice	1A 1cc# 1ee 1gg
=7	=7	=7	=7	=7	=7
1V7	A:7	12.978	.	voice	1A 1cc# 1ee 1gg
=8	=8	=8	=8	=8	=8
1V7	A:7	15.078	.	voice	1A 1cc# 1ee 1gg
=9	=9	=9	=9	=9	=9
1V7	A:7	17.177	newline	voice	1A 1cc# 1ee 1gg
=10	=10	=10	=10	=10	=10
1V7	A:7	19.303	.	voice	1A 1cc# 1ee 1gg
=11	=11	=11	=11	=11	=11
1V7	A:7	21.429	.	voice	1A 1cc# 1ee 1gg
=12	=12	=12	=12	=12	=12
1V7	A:7	23.554	.	voice	1A 1cc# 1ee 1gg
=13	=13	=13	=13	=13	=13
1V7	A:7	25.68	newline	voice	1A 1cc# 1ee 1gg
=14	=14	=14	=14	=14	=14
1V7	A:7	27.784	.	voice	1A 1cc# 1ee 1gg
=15	=15	=15	=15	=15	=15
1V7	A:7	29.889	.	voice	1A 1cc# 1ee 1gg
=16	=16	=16	=16	=16	=16
1V7	A:7	31.993	.	voice	1A 1cc# 1ee 1gg
=17	=17	=17	=17	=17	=17
1V7	A:7	34.098	newline	voice	1A 1cc# 1ee 1gg
=18	=18	=18	=18	=18	=18
1V7	A:7	36.212	.	voice	1A 1cc# 1ee 1gg
=19	=19	=19	=19	=19	=19
1V7	A:7	38.326	.	voice	1A 1cc# 1ee 1gg
=20	=20	=20	=20	=20	=20
1V7	A:7	40.44	.	voice	1A 1cc# 1ee 1gg
=21	=21	=21	=21	=21	=21
*>C_chorus	*>C_chorus	*>C_chorus	*>C_chorus	*>C_chorus	*>C_chorus
2I	D:maj	42.554	newline	voice	2D 2f# 2a
2IV	G:maj	43.617	.	voice	2G 2b 2dd
=22	=22	=22	=22	=22	=22
2V	A:maj	44.68	.	voice	2A 2cc# 2ee
2IV	G:maj	45.743	.	voice	2G 2b 2dd
=23	=23	=23	=23	=23	=23
2I	D:maj	46.806	.	voice	2D 2f# 2a
2IV	G:maj	47.869	.	voice	2G 2b 2dd
=24	=24	=24	=24	=24	=24
2V	A:maj	48.932	.	voice	2A 2cc# 2ee
2IV	G:maj	49.995	.	voice	2G 2b 2dd
=25	=25	=25	=25	=25	=25
2I	D:maj	51.059	newline	voice	2D 2f# 2a
2IV	G:maj	52.114	.	voice	2G 2b 2dd
=26	=26	=26	=26	=26	=26
2V	A:maj	53.169	.	voice	2A 2cc# 2ee
2IV	G:maj	54.224	.	voice	2G 2b 2dd
=27	=27	=27	=27	=27	=27
2I	D:maj	55.279	.	voice	2D 2f# 2a
2IV	G:maj	56.334	.	voice	2G 2b 2dd
=28	=28	=28	=28	=28	=28
2V	A:maj	57.389	.	voice	2A 2cc# 2ee
2IV	G:maj	58.444	.	voice	2G 2b 2dd
=29	=29	=29	=29	=29	=29
*>B_verse	*>B_verse	*>B_verse	*>B_verse	*>B_verse	*>B_verse
1V7	A:7	59.499	newline	voice	1A 1cc# 1ee 1gg
=30	=30	=30	=30	=30	=30
1V7	A:7	61.621	.	voice	1A 1cc# 1ee 1gg
=31	=31	=31	=31	=31	=31
1V7	A:7	63.744	.	voice	1A 1cc# 1ee 1gg
=32	=32	=32	=32	=32	=32
1V7	A:7	65.866	.	voice	1A 1cc# 1ee 1gg
=33	=33	=33	=33	=33	=33
1V7	A:7	67.989	newline	voice	1A 1cc# 1ee 1gg
=34	=34	=34	=34	=34	=34
1V7	A:7	70.095	.	voice	1A 1cc# 1ee 1gg
=35	=35	=35	=35	=35	=35
1V7	A:7	72.202	.	voice	1A 1cc# 1ee 1gg
=36	=36	=36	=36	=36	=36
1V7	A:7	74.308	.	voice	1A 1cc# 1ee 1gg
=37	=37	=37	=37	=37	=37
1V7	A:7	76.415	newline	voice	1A 1cc# 1ee 1gg
=38	=38	=38	=38	=38	=38
1V7	A:7	78.529	.	voice	1A 1cc# 1ee 1gg
=39	=39	=39	=39	=39	=39
1V7	A:7	80.644	.	voice	1A 1cc# 1ee 1gg
=40	=40	=40	=40	=40	=40
1V7	A:7	82.758	.	voice	1A 1cc# 1ee 1gg
=41	=41	=41	=41	=41	=41
1V7	A:7	84.873	newline	voice	1A 1cc# 1ee 1gg
=42	=42	=42	=42	=42	=42
1V7	A:7	86.989	.	voice	1A 1cc# 1ee 1gg
=43	=43	=43	=43	=43	=43
1V7	A:7	89.106	.	voice	1A 1cc# 1ee 1gg
=44	=44	=44	=44	=44	=44
1V7	A:7	91.222	.	voice	1A 1cc# 1ee 1gg
=45	=45	=45	=45	=45	=45
*>C_chorus	*>C_chorus	*>C_chorus	*>C_chorus	*>C_chorus	*>C_chorus
2I	D:maj	93.339	newline	voice	2D 2f# 2a
2IV	G:maj	94.398	.	voice	2G 2b 2dd
=46	=46	=46	=46	=46	=46
2V	A:maj	95.456	.	voice	2A 2cc# 2ee
2IV	G:maj	96.515	.	voice	2G 2b 2dd
=47	=47	=47	=47	=47	=47
2I	D:maj	97.574	.	voice	2D 2f# 2a
2IV	G:maj	98.633	.	voice	2G 2b 2dd
=48	=48	=48	=48	=48	=48
2V	A:maj	99.692	.	voice	2A 2cc# 2ee
2IV	G:maj	100.75	.	voice	2G 2b 2dd
=49	=49	=49	=49	=49	=49
2I	D:maj	101.809	newline	voice	2D 2f# 2a
2IV	G:maj	102.868	.	voice	2G 2b 2dd
=50	=50	=50	=50	=50	=50
2V	A:maj	103.927	.	voice	2A 2cc# 2ee
2IV	G:maj	104.986	.	voice	2G 2b 2dd
=51	=51	=51	=51	=51	=51
2I	D:maj	106.045	.	voice	2D 2f# 2a
2IV	G:maj	107.105	.	voice	2G 2b 2dd
=52	=52	=52	=52	=52	=52
2V	A:maj	108.164	.	voice	2A 2cc# 2ee
2IV	G:maj	109.223	.	voice	2G 2b 2dd
=53	=53	=53	=53	=53	=53
*>D_trans	*>D_trans	*>D_trans	*>D_trans	*>D_trans	*>D_trans
1I	D:maj	110.282	newline	voice	1D 1f# 1a
=54	=54	=54	=54	=54	=54
4-III	F:maj	112.39	.	voice	4F 4a 4cc
2.IV	G:maj	112.917	.	voice	2G 2b 2dd
=55	=55	=55	=55	=55	=55
1V	A:maj	114.499	.	voice	1A 1cc# 1ee
=56	=56	=56	=56	=56	=56
4-VII	C:maj	116.607	.	voice	4C 4e 4g
4V	A:maj	117.134	.	voice	4A 4cc# 4ee
4IV	G:maj	117.661	.	voice	4G 4b 4dd
4-III	F:maj	118.188	.	voice	4F 4a 4cc
=57	=57	=57	=57	=57	=57
1I	D:maj	118.715	newline	voice	1D 1f# 1a
=58	=58	=58	=58	=58	=58
4-III	F:maj	120.834	.	voice	4F 4a 4cc
2.IV	G:maj	121.363	.	voice	2G 2b 2dd
=59	=59	=59	=59	=59	=59
1V	A:maj	122.952	.	voice	1A 1cc# 1ee
=60	=60	=60	=60	=60	=60
4-VII	C:maj	125.071	.	voice	4C 4e 4g
4V	A:maj	125.6	.	voice	4A 4cc# 4ee
4IV	G:maj	126.13	.	voice	4G 4b 4dd
4-III	F:maj	126.659	.	voice	4F 4a 4cc
=61	=61	=61	=61	=61	=61
*>B_verse	*>B_verse	*>B_verse	*>B_verse	*>B_verse	*>B_verse
1V7	A:7	127.189	newline	voice	1A 1cc# 1ee 1gg
=62	=62	=62	=62	=62	=62
1V7	A:7	129.304	.	voice	1A 1cc# 1ee 1gg
=63	=63	=63	=63	=63	=63
1V7	A:7	131.418	.	voice	1A 1cc# 1ee 1gg
=64	=64	=64	=64	=64	=64
1V7	A:7	133.533	.	voice	1A 1cc# 1ee 1gg
=65	=65	=65	=65	=65	=65
1V7	A:7	135.647	newline	voice	1A 1cc# 1ee 1gg
=66	=66	=66	=66	=66	=66
1V7	A:7	137.771	.	voice	1A 1cc# 1ee 1gg
=67	=67	=67	=67	=67	=67
1V7	A:7	139.895	.	voice	1A 1cc# 1ee 1gg
=68	=68	=68	=68	=68	=68
1V7	A:7	142.018	.	voice	1A 1cc# 1ee 1gg
=69	=69	=69	=69	=69	=69
1V7	A:7	144.142	newline	voice	1A 1cc# 1ee 1gg
=70	=70	=70	=70	=70	=70
1V7	A:7	146.254	.	voice	1A 1cc# 1ee 1gg
=71	=71	=71	=71	=71	=71
1V7	A:7	148.367	.	voice	1A 1cc# 1ee 1gg
=72	=72	=72	=72	=72	=72
1V7	A:7	150.48	.	voice	1A 1cc# 1ee 1gg
=73	=73	=73	=73	=73	=73
1V7	A:7	152.592	newline	voice	1A 1cc# 1ee 1gg
=74	=74	=74	=74	=74	=74
1V7	A:7	154.698	.	voice	1A 1cc# 1ee 1gg
=75	=75	=75	=75	=75	=75
1V7	A:7	156.805	.	voice	1A 1cc# 1ee 1gg
=76	=76	=76	=76	=76	=76
1V7	A:7	158.911	.	voice	1A 1cc# 1ee 1gg
=77	=77	=77	=77	=77	=77
*>C2_chorus	*>C2_chorus	*>C2_chorus	*>C2_chorus	*>C2_chorus	*>C2_chorus
2I	D:maj	161.017	newline	voice	2D 2f# 2a
2IV	G:maj	162.076	.	voice	2G 2b 2dd
=78	=78	=78	=78	=78	=78
2V	A:maj	163.135	.	voice	2A 2cc# 2ee
2IV	G:maj	164.194	.	voice	2G 2b 2dd
=79	=79	=79	=79	=79	=79
2I	D:maj	165.254	.	voice	2D 2f# 2a
2IV	G:maj	166.313	.	voice	2G 2b 2dd
=80	=80	=80	=80	=80	=80
2V	A:maj	167.372	.	voice	2A 2cc# 2ee
2IV	G:maj	168.431	.	voice	2G 2b 2dd
=81	=81	=81	=81	=81	=81
2I	D:maj	169.49	newline	voice	2D 2f# 2a
2IV	G:maj	170.547	.	voice	2G 2b 2dd
=82	=82	=82	=82	=82	=82
2V	A:maj	171.604	.	voice	2A 2cc# 2ee
2IV	G:maj	172.661	.	voice	2G 2b 2dd
=83	=83	=83	=83	=83	=83
2I	D:maj	173.718	.	voice	2D 2f# 2a
2IV	G:maj	174.775	.	voice	2G 2b 2dd
=84	=84	=84	=84	=84	=84
2V	A:maj	175.832	.	voice	2A 2cc# 2ee
2IV	G:maj	176.889	.	voice	2G 2b 2dd
=85	=85	=85	=85	=85	=85
2I	D:maj	177.946	newline	voice	2D 2f# 2a
2IV	G:maj	179.005	.	voice	2G 2b 2dd
=86	=86	=86	=86	=86	=86
2V	A:maj	180.064	.	voice	2A 2cc# 2ee
2IV	G:maj	181.123	.	voice	2G 2b 2dd
=87	=87	=87	=87	=87	=87
2I	D:maj	182.183	.	voice	2D 2f# 2a
2IV	G:maj	183.242	.	voice	2G 2b 2dd
=88	=88	=88	=88	=88	=88
2V	A:maj	184.301	.	voice	2A 2cc# 2ee
2IV	G:maj	185.36	.	voice	2G 2b 2dd
=89	=89	=89	=89	=89	=89
2I	D:maj	186.419	newline	voice	2D 2f# 2a
2IV	G:maj	187.481	.	voice	2G 2b 2dd
=90	=90	=90	=90	=90	=90
2V	A:maj	188.542	.	voice	2A 2cc# 2ee
2IV	G:maj	189.604	.	voice	2G 2b 2dd
=91	=91	=91	=91	=91	=91
2I	D:maj	190.666	.	voice	2D 2f# 2a
2IV	G:maj	191.728	.	voice	2G 2b 2dd
=92	=92	=92	=92	=92	=92
2V	A:maj	192.79	.	voice	2A 2cc# 2ee
2IV	G:maj	193.852	.	voice	2G 2b 2dd
=93	=93	=93	=93	=93	=93
*>E_instrumental	*>E_instrumental	*>E_instrumental	*>E_instrumental	*>E_instrumental	*>E_instrumental
2Ic	D:maj/5	194.913	newline	saxophone	2d 2f# 2A
2IVe	G:maj/2	195.964	.	saxophone	2G 2b 2dd
=94	=94	=94	=94	=94	=94
2V7	A:7	197.015	.	saxophone	2A 2cc# 2ee 2gg
2IVe	G:maj/2	198.065	.	saxophone	2G 2b 2dd
=95	=95	=95	=95	=95	=95
2Ic	D:maj/5	199.116	.	saxophone	2d 2f# 2A
2IVe	G:maj/2	200.167	.	saxophone	2G 2b 2dd
=96	=96	=96	=96	=96	=96
2V7	A:7	201.218	.	saxophone	2A 2cc# 2ee 2gg
2IVe	G:maj/2	202.268	.	saxophone	2G 2b 2dd
=97	=97	=97	=97	=97	=97
2Ic	D:maj/5	203.319	newline	saxophone	2d 2f# 2A
2IVe	G:maj/2	204.372	.	saxophone	2G 2b 2dd
=98	=98	=98	=98	=98	=98
2V7	A:7	205.426	.	saxophone	2A 2cc# 2ee 2gg
2IVe	G:maj/2	206.479	.	saxophone	2G 2b 2dd
=99	=99	=99	=99	=99	=99
2Ic	D:maj/5	207.533	.	saxophone	2d 2f# 2A
2IVe	G:maj/2	208.586	.	saxophone	2G 2b 2dd
=100	=100	=100	=100	=100	=100
2V7	A:7	209.64	.	saxophone	2A 2cc# 2ee 2gg
2IVe	G:maj/2	210.693	.	saxophone	2G 2b 2dd
=101	=101	=101	=101	=101	=101
2Ic	D:maj/5	211.747	newline	voice	2d 2f# 2A
2IVe	G:maj/2	212.812	.	voice	2G 2b 2dd
=102	=102	=102	=102	=102	=102
2V7	A:7	213.877	.	voice	2A 2cc# 2ee 2gg
2IVe	G:maj/2	214.942	.	voice	2G 2b 2dd
=103	=103	=103	=103	=103	=103
2Ic	D:maj/5	216.007	.	voice	2d 2f# 2A
2IVe	G:maj/2	217.073	.	voice	2G 2b 2dd
=104	=104	=104	=104	=104	=104
2V7	A:7	218.138	.	voice	2A 2cc# 2ee 2gg
2IVe	G:maj/2	219.203	.	voice	2G 2b 2dd
=105	=105	=105	=105	=105	=105
2Ic	D:maj/5	220.268	newline	voice	2d 2f# 2A
2IVe	G:maj/2	221.321	.	voice	2G 2b 2dd
=106	=106	=106	=106	=106	=106
2V7	A:7	222.375	.	voice	2A 2cc# 2ee 2gg
2IVe	G:maj/2	223.428	.	voice	2G 2b 2dd
=107	=107	=107	=107	=107	=107
2Ic	D:maj/5	224.481	.	voice	2d 2f# 2A
2IVe	G:maj/2	225.534	.	voice	2G 2b 2dd
=108	=108	=108	=108	=108	=108
2V7	A:7	226.587	.	voice	2A 2cc# 2ee 2gg
2IVe	G:maj/2	227.641	.	voice	2G 2b 2dd
=109	=109	=109	=109	=109	=109
2Ic	D:maj/5	228.694	newline	saxophone	2d 2f# 2A
2IVe	G:maj/2	229.754	.	saxophone	2G 2b 2dd
=110	=110	=110	=110	=110	=110
2V7	A:7	230.814	.	saxophone	2A 2cc# 2ee 2gg
2IVe	G:maj/2	231.874	.	saxophone	2G 2b 2dd
=111	=111	=111	=111	=111	=111
2Ic	D:maj/5	232.935	.	saxophone	2d 2f# 2A
2IVe	G:maj/2	233.995	.	saxophone	2G 2b 2dd
=112	=112	=112	=112	=112	=112
*>F_trans	*>F_trans	*>F_trans	*>F_trans	*>F_trans	*>F_trans
1V7	A:7(#9)	235.055	newline	saxophone	1A 1cc# 1ee 1gg
=113	=113	=113	=113	=113	=113
1V7	A:7(#9)	237.172	.	saxophone	1A 1cc# 1ee 1gg
=114	=114	=114	=114	=114	=114
1V7	A:7(#9)	239.29	.	saxophone	1A 1cc# 1ee 1gg
=115	=115	=115	=115	=115	=115
1V7	A:7(#9)	241.408	.	saxophone	1A 1cc# 1ee 1gg
=116	=116	=116	=116	=116	=116
1V7	A:7(#9)	243.525	newline	saxophone	1A 1cc# 1ee 1gg
=117	=117	=117	=117	=117	=117
1V7	A:7(#9)	245.642	.	saxophone	1A 1cc# 1ee 1gg
=118	=118	=118	=118	=118	=118
1V7	A:7(#9)	247.758	.	saxophone	1A 1cc# 1ee 1gg
=119	=119	=119	=119	=119	=119
2Ic	D:maj/5	249.875	.	saxophone	2d 2f# 2A
2IVe	G:maj/2	250.933	.	saxophone	2G 2b 2dd
=120	=120	=120	=120	=120	=120
*>B2_solo	*>B2_solo	*>B2_solo	*>B2_solo	*>B2_solo	*>B2_solo
1V7	A:7	251.991	newline	saxophone guitar	1A 1cc# 1ee 1gg
=121	=121	=121	=121	=121	=121
1V7	A:7	254.073	.	saxophone guitar	1A 1cc# 1ee 1gg
=122	=122	=122	=122	=122	=122
1V7	A:7	256.155	.	saxophone guitar	1A 1cc# 1ee 1gg
=123	=123	=123	=123	=123	=123
1V7	A:7	258.237	.	saxophone guitar	1A 1cc# 1ee 1gg
=124	=124	=124	=124	=124	=124
1V7	A:7	260.319	newline	saxophone	1A 1cc# 1ee 1gg
=125	=125	=125	=125	=125	=125
1V7	A:7	262.334	.	saxophone	1A 1cc# 1ee 1gg
=126	=126	=126	=126	=126	=126
1V7	A:7	264.348	.	saxophone	1A 1cc# 1ee 1gg
=127	=127	=127	=127	=127	=127
1V7	A:7	266.363	.	saxophone	1A 1cc# 1ee 1gg
=128	=128	=128	=128	=128	=128
1V7	A:7	268.377	newline	guitar	1A 1cc# 1ee 1gg
=129	=129	=129	=129	=129	=129
1V7	A:7	270.286	.	guitar	1A 1cc# 1ee 1gg
1r;	N	272.194	.	r	1r;
1r;	N	274.048	.	r	1r;
*-	*-	*-	*-	*-	*-
!!!OTL: Deeper Shade Of Soul
!!!COC: Urban Dance Squad
!!!BillboardChartDate: 1991/02/16
!!!BillboardPeak: 21
!!!BillboardWeeksOnChart: 18
!!!SampleTargetRank: 27
!!!SampleActualRank: 28
!!!SampleID#: 0339
!!!RDF**harmony: **recip + pitch class of root + harmonic quality
!!!RDF**harte: Chris Harte's syntax, used by MIREX
!!!RDF**phrase: newline = linebreak in original McGill transcription
!!!RDF**timestamp: McGill audio timestamp in seconds
!!!RDF**leadinstrument: original McGill primary instrumentation annotation
!!!RDT: 2017/01/12/
!!!ENC: Nathaniel Condit-Schultz
!!!EST: Awating manual error checking and editing.
